icons/chevron-square-right.svg

<svg width="24" height="24" viewBox="0 0 24 24" fill="none" xmlns="http://www.w3.org/2000/svg">
<path fill-rule="evenodd" clip-rule="evenodd" d="M9 3.75C6.11421 3.75 3.75 6.11421 3.75 9V15C3.75 17.8858 6.11421 20.25 9 20.25H15C17.8858 20.25 20.25 17.8858 20.25 15V9C20.25 6.02236 17.894 3.75 15 3.75H9ZM2.25 9C2.25 5.28579 5.28579 2.25 9 2.25H15C18.706 2.25 21.75 5.17764 21.75 9V15C21.75 18.7142 18.7142 21.75 15 21.75H9C5.28579 21.75 2.25 18.7142 2.25 15V9Z" fill="black"/>
<path fill-rule="evenodd" clip-rule="evenodd" d="M9.75715 7.81977C10.05 7.52687 10.5249 7.52688 10.8178 7.81977L14.0178 11.0198C14.0178 11.0198 14.0178 11.0198 14.0178 11.0198C14.2826 11.2846 14.4625 11.6424 14.4625 12.0376C14.4625 12.4206 14.2902 12.7806 13.9761 13.0221L10.8178 16.1804C10.5249 16.4733 10.05 16.4733 9.75715 16.1804C9.46425 15.8875 9.46425 15.4127 9.75714 15.1198L12.8768 12.0001L9.75714 8.88043C9.46425 8.58753 9.46425 8.11266 9.75715 7.81977ZM12.9743 12.1009C12.9742 12.1009 12.9739 12.1003 12.9734 12.0993L12.9743 12.1009Z" fill="black"/>
</svg>

<svg xmlns="http://www.w3.org/2000/svg" fill="none" viewBox="0 0 24 24">
  <path fill="#000" fill-rule="evenodd" d="M9 3.75C6.114 3.75 3.75 6.114 3.75 9v6c0 2.886 2.364 5.25 5.25 5.25h6c2.886 0 5.25-2.364 5.25-5.25V9c0-2.978-2.356-5.25-5.25-5.25H9ZM2.25 9c0-3.714 3.036-6.75 6.75-6.75h6c3.706 0 6.75 2.928 6.75 6.75v6c0 3.714-3.036 6.75-6.75 6.75H9c-3.714 0-6.75-3.036-6.75-6.75V9Z" clip-rule="evenodd"/>
  <path fill="#000" fill-rule="evenodd" d="M9.757 7.82a.75.75 0 0 1 1.06 0l3.2 3.2c.266.265.446.622.446 1.018 0 .383-.173.743-.487.984l-3.158 3.158a.75.75 0 0 1-1.06-1.06L12.876 12l-3.12-3.12a.75.75 0 0 1 0-1.06Zm3.217 4.28Z" clip-rule="evenodd"/>
</svg>
